icons8-github-squared.svg

<svg xmlns="http://www.w3.org/2000/svg"  viewBox="0 0 100 100" width="100px" height="100px"><path d="M 29 17 C 22.383 17 17 22.383 17 29 L 17 71 C 17 77.617 22.383 83 29 83 L 71 83 C 77.617 83 83 77.617 83 71 L 83 29 C 83 22.383 77.617 17 71 17 L 29 17 z M 29 19 L 71 19 C 76.514 19 81 23.486 81 29 L 81 71 C 81 76.514 76.514 81 71 81 L 29 81 C 23.486 81 19 76.514 19 71 L 19 29 C 19 23.486 23.486 19 29 19 z M 34.5 23 C 28.159 23 23 28.159 23 34.5 L 23 65.5 C 23 71.841 28.159 77 34.5 77 L 41.976562 77 L 58.976562 77 L 65.5 77 C 71.841 77 77 71.841 77 65.5 L 77 50.5 C 77 50.224 76.776 50 76.5 50 C 76.224 50 76 50.224 76 50.5 L 76 65.5 C 76 71.29 71.29 76 65.5 76 L 59.476562 76 L 59.476562 67.654297 C 59.476563 65.441297 58.439422 63.368 56.732422 62 L 57.425781 62 C 64.598781 62 70.433594 56.186062 70.433594 49.039062 C 70.433594 45.802062 69.233828 42.710641 67.048828 40.306641 C 67.378828 38.242641 67.384219 35.143797 66.449219 32.341797 C 66.380219 32.137797 66.189609 32 65.974609 32 C 61.923609 32 58.503172 34.689 57.076172 36 L 44.667969 36 C 41.167969 32.696 38.012563 32 35.976562 32 C 35.761563 32 35.570953 32.137797 35.501953 32.341797 C 34.733953 34.642797 34.396469 37.396609 34.605469 39.599609 C 32.006469 42.053609 30.521484 45.479016 30.521484 49.041016 C 30.521484 56.187016 36.355344 62 43.527344 62 L 44.195312 62 C 42.874313 63.032 41.928406 64.451094 41.566406 65.996094 C 39.569406 65.964094 37.279938 65.668453 36.210938 64.064453 C 33.785937 60.424453 32.562609 60.152344 30.974609 60.152344 C 30.311609 60.152344 29.812516 60.442266 29.603516 60.947266 C 29.309516 61.655266 29.652484 62.597797 30.521484 63.466797 C 31.693484 64.639797 31.694672 64.638391 32.888672 67.025391 C 33.610672 68.469391 35.679563 70.863141 41.476562 70.994141 L 41.476562 76 L 34.5 76 C 28.71 76 24 71.29 24 65.5 L 24 34.5 C 24 28.71 28.71 24 34.5 24 L 65.5 24 C 65.776 24 66 23.776 66 23.5 C 66 23.224 65.776 23 65.5 23 L 34.5 23 z M 36.337891 33.007812 C 38.205891 33.091813 40.957156 33.850344 44.035156 36.777344 L 44.126953 36.865234 C 44.219953 36.952234 44.34175 37 44.46875 37 L 57.273438 37 C 57.400437 37 57.533953 36.942469 57.626953 36.855469 C 58.818953 35.732469 61.931281 33.169812 65.613281 33.007812 C 66.412281 35.652813 66.354484 38.524906 66.021484 40.378906 C 65.993484 40.535906 66.041391 40.695547 66.150391 40.810547 C 68.266391 43.052547 69.433594 45.975062 69.433594 49.039062 C 69.433594 55.634062 64.046781 61 57.425781 61 L 54.976562 61 C 54.741562 61 54.538281 61.163578 54.488281 61.392578 C 54.437281 61.621578 54.553578 61.855125 54.767578 61.953125 C 57.019578 62.986125 58.476562 65.223297 58.476562 67.654297 L 58.476562 76 L 42.476562 76 L 42.476562 70.5 C 42.476562 70.224 42.252563 70 41.976562 70 C 37.795563 70 34.885203 68.784125 33.783203 66.578125 C 32.540203 64.093125 32.515516 64.046766 31.228516 62.759766 C 30.557516 62.087766 30.441344 61.536078 30.527344 61.330078 C 30.590344 61.175078 30.834609 61.152344 30.974609 61.152344 C 32.097609 61.152344 33.067906 61.152141 35.378906 64.619141 C 36.785906 66.728141 39.643563 67 41.976562 67 C 42.221562 67 42.42975 66.822078 42.46875 66.580078 C 42.78675 64.631078 44.209594 62.859078 46.183594 61.955078 C 46.397594 61.857078 46.515844 61.623531 46.464844 61.394531 C 46.414844 61.164531 46.211562 61 45.976562 61 L 43.529297 61 C 36.909297 61 31.521484 55.634062 31.521484 49.039062 C 31.521484 45.674062 32.958844 42.439062 35.464844 40.164062 C 35.583844 40.055063 35.645953 39.896328 35.626953 39.736328 C 35.397953 37.769328 35.675891 35.169812 36.337891 33.007812 z M 76.5 34 C 76.224 34 76 34.224 76 34.5 L 76 38 C 76 38.276 76.224 38.5 76.5 38.5 C 76.776 38.5 77 38.276 77 38 L 77 34.5 C 77 34.224 76.776 34 76.5 34 z M 76.5 41 C 76.224 41 76 41.224 76 41.5 L 76 48 C 76 48.276 76.224 48.5 76.5 48.5 C 76.776 48.5 77 48.276 77 48 L 77 41.5 C 77 41.224 76.776 41 76.5 41 z"/></svg>

<svg xmlns="http://www.w3.org/2000/svg" xmlns:xlink="http://www.w3.org/1999/xlink" viewBox="0,0,256,256" width="100px" height="100px" fill-rule="nonzero"><g fill="#eeece1" fill-rule="nonzero" stroke="none" stroke-width="1" stroke-linecap="butt" stroke-linejoin="miter" stroke-miterlimit="10" stroke-dasharray="" stroke-dashoffset="0" font-family="none" font-weight="none" font-size="none" text-anchor="none" style="mix-blend-mode: normal"><g transform="scale(2.56,2.56)"><path d="M29,17c-6.617,0 -12,5.383 -12,12v42c0,6.617 5.383,12 12,12h42c6.617,0 12,-5.383 12,-12v-42c0,-6.617 -5.383,-12 -12,-12zM29,19h42c5.514,0 10,4.486 10,10v42c0,5.514 -4.486,10 -10,10h-42c-5.514,0 -10,-4.486 -10,-10v-42c0,-5.514 4.486,-10 10,-10zM34.5,23c-6.341,0 -11.5,5.159 -11.5,11.5v31c0,6.341 5.159,11.5 11.5,11.5h7.47656h17h6.52344c6.341,0 11.5,-5.159 11.5,-11.5v-15c0,-0.276 -0.224,-0.5 -0.5,-0.5c-0.276,0 -0.5,0.224 -0.5,0.5v15c0,5.79 -4.71,10.5 -10.5,10.5h-6.02344v-8.3457c0,-2.213 -1.03714,-4.2863 -2.74414,-5.6543h0.69336c7.173,0 13.00781,-5.81394 13.00781,-12.96094c0,-3.237 -1.19977,-6.32842 -3.38477,-8.73242c0.33,-2.064 0.33539,-5.16284 -0.59961,-7.96484c-0.069,-0.204 -0.25961,-0.3418 -0.47461,-0.3418c-4.051,0 -7.47144,2.689 -8.89844,4h-12.4082c-3.5,-3.304 -6.65541,-4 -8.69141,-4c-0.215,0 -0.40561,0.1378 -0.47461,0.3418c-0.768,2.301 -1.10548,5.05481 -0.89648,7.25781c-2.599,2.454 -4.08398,5.87941 -4.08398,9.44141c0,7.146 5.83386,12.95898 13.00586,12.95898h0.66797c-1.321,1.032 -2.26691,2.45109 -2.62891,3.99609c-1.997,-0.032 -4.28647,-0.32764 -5.35547,-1.93164c-2.425,-3.64 -3.64833,-3.91211 -5.23633,-3.91211c-0.663,0 -1.16209,0.28992 -1.37109,0.79492c-0.294,0.708 0.04897,1.65053 0.91797,2.51953c1.172,1.173 1.17319,1.17159 2.36719,3.55859c0.722,1.444 2.79089,3.83775 8.58789,3.96875v5.00586h-6.97656c-5.79,0 -10.5,-4.71 -10.5,-10.5v-31c0,-5.79 4.71,-10.5 10.5,-10.5h31c0.276,0 0.5,-0.224 0.5,-0.5c0,-0.276 -0.224,-0.5 -0.5,-0.5zM36.33789,33.00781c1.868,0.084 4.61926,0.84253 7.69727,3.76953l0.0918,0.08789c0.093,0.087 0.2148,0.13477 0.3418,0.13477h12.80469c0.127,0 0.26051,-0.05753 0.35352,-0.14453c1.192,-1.123 4.30433,-3.68566 7.98633,-3.84766c0.799,2.645 0.7412,5.51709 0.4082,7.37109c-0.028,0.157 0.01991,0.31664 0.12891,0.43164c2.116,2.242 3.2832,5.16452 3.2832,8.22852c0,6.595 -5.38681,11.96094 -12.00781,11.96094h-2.44922c-0.235,0 -0.43828,0.16358 -0.48828,0.39258c-0.051,0.229 0.0653,0.46255 0.2793,0.56055c2.252,1.033 3.70898,3.27017 3.70898,5.70117v8.3457h-16v-5.5c0,-0.276 -0.224,-0.5 -0.5,-0.5c-4.181,0 -7.09136,-1.21587 -8.19336,-3.42187c-1.243,-2.485 -1.26769,-2.53136 -2.55469,-3.81836c-0.671,-0.672 -0.78717,-1.22369 -0.70117,-1.42969c0.063,-0.155 0.30727,-0.17773 0.44727,-0.17773c1.123,0 2.0933,-0.0002 4.4043,3.4668c1.407,2.109 4.26466,2.38086 6.59766,2.38086c0.245,0 0.45319,-0.17792 0.49219,-0.41992c0.318,-1.949 1.74084,-3.721 3.71484,-4.625c0.214,-0.098 0.33225,-0.33155 0.28125,-0.56055c-0.05,-0.23 -0.25328,-0.39453 -0.48828,-0.39453h-2.44727c-6.62,0 -12.00781,-5.36594 -12.00781,-11.96094c0,-3.365 1.43736,-6.6 3.94336,-8.875c0.119,-0.109 0.18111,-0.26773 0.16211,-0.42773c-0.229,-1.967 0.04894,-4.56652 0.71094,-6.72852zM76.5,34c-0.276,0 -0.5,0.224 -0.5,0.5v3.5c0,0.276 0.224,0.5 0.5,0.5c0.276,0 0.5,-0.224 0.5,-0.5v-3.5c0,-0.276 -0.224,-0.5 -0.5,-0.5zM76.5,41c-0.276,0 -0.5,0.224 -0.5,0.5v6.5c0,0.276 0.224,0.5 0.5,0.5c0.276,0 0.5,-0.224 0.5,-0.5v-6.5c0,-0.276 -0.224,-0.5 -0.5,-0.5z"></path></g></g></svg>
